src/assets/Imgs/profile/wechatIcon.svg

<svg fill="none" height="12" viewBox="0 0 14 12" width="14" xmlns="http://www.w3.org/2000/svg"><g fill="#1ddf5b"><path d="m6.56034 4.60209c-1.24285.99441-1.69804 2.28409-1.36554 3.86904.00879.03965-.0064.06071-.04556.06319-.59306.0289-1.06382-.01074-1.4123-.11894-.37526-.11645-.56468-.19202-.93155.02726-.3261.19574-.66019.39479-1.00227.59714-.04744.02796-.10627.02493-.15078-.00777s-.06661-.08913-.05663-.14461c.05395-.30105.39443-1.1819.1067-1.40242-.852818-.65744-1.401913-1.49079-1.6472878-2.50007-.2070102-1.39499.1690448-2.56491 1.1281678-3.50977.7617-.749937 1.64368-1.210803 2.64596-1.3825948.77929-.1329738 1.57536-.1226498 2.38821.0309718 1.44267.273381 2.55925 1.097653 3.34972 2.472813.14626.25398.20501.62316.31171.91059.00644.01788.00379.0379-.00705.05334-.01085.01544-.02845.02425-.0469.02347-1.22847-.05617-2.31667.28329-3.2646 1.01836zm-2.58602-1.71462c0-.38042-.29844-.68882-.66659-.68882-.36814 0-.66659.3084-.66659.68882 0 .38043.29845.68882.66659.68882.36815 0 .66659-.30839.66659-.68882zm3.32335 0c0-.38179-.29952-.6913-.66899-.6913s-.66899.30951-.66899.6913c0 .3818.29952.6913.66899.6913s.66899-.3095.66899-.6913z"/><path d="m13.0203 5.31529c1.4803 1.45591 1.2312 3.66107-.3873 4.89561-.3123.2372-.0298.8624.0524 1.1762.0088.0333.0021.069-.0181.0967s-.0517.0445-.0856.0456c-.0254.0008-.0615-.013-.1084-.0414-.3242-.197-.6563-.3855-.9964-.5656-.0341-.0174-.0723-.0237-.1096-.0182-.2209.0365-.4402.0754-.6579.1168-.88756.1662-1.75005.0847-2.58752-.2445-2.49809-.98279-3.28351-3.97732-1.00829-5.76772 1.81636-1.23211 4.20001-1.23819 5.90671.30651zm-3.96282 1.17738c0-.30967-.24599-.56072-.54944-.56072s-.54944.25105-.54944.56072.24599.56072.54944.56072.54944-.25105.54944-.56072zm2.75192 0c0-.30967-.246-.56072-.5494-.56072-.3035 0-.5494.25105-.5494.56072s.2459.56072.5494.56072c.3034 0 .5494-.25105.5494-.56072z"/></g></svg>

<svg width="14" height="12" viewBox="0 0 14 12" fill="none" xmlns="http://www.w3.org/2000/svg">
<g id="Group 650">
<path id="&#229;&#189;&#162;&#231;&#138;&#182;" d="M6.56034 4.60209C5.31749 5.5965 4.8623 6.88618 5.1948 8.47113C5.20359 8.51078 5.1884 8.53184 5.14924 8.53432C4.55618 8.56322 4.08542 8.52358 3.73694 8.41538C3.36168 8.29893 3.17226 8.22336 2.80539 8.44264C2.47929 8.63838 2.1452 8.83743 1.80312 9.03978C1.75568 9.06774 1.69685 9.06471 1.65234 9.03201C1.60783 8.99931 1.58573 8.94288 1.59571 8.8874C1.64966 8.58635 1.99014 7.7055 1.70241 7.48498C0.849592 6.82754 0.300497 5.99419 0.0551222 4.98491C-0.151888 3.58992 0.224167 2.42 1.18329 1.47514C1.94499 0.725203 2.82697 0.264337 3.82925 0.0925452C4.60854 -0.0404286 5.40461 -0.0301046 6.21746 0.123517C7.66013 0.396898 8.77671 1.22117 9.56718 2.59633C9.71344 2.85031 9.77219 3.21949 9.87889 3.50692C9.88533 3.5248 9.88268 3.54482 9.87184 3.56026C9.86099 3.5757 9.84339 3.58451 9.82494 3.58373C8.59647 3.52756 7.50827 3.86702 6.56034 4.60209ZM3.97432 2.88747C3.97432 2.50705 3.67588 2.19865 3.30773 2.19865C2.93959 2.19865 2.64114 2.50705 2.64114 2.88747C2.64114 3.2679 2.93959 3.57629 3.30773 3.57629C3.67588 3.57629 3.97432 3.2679 3.97432 2.88747ZM7.29767 2.88747C7.29767 2.50568 6.99815 2.19617 6.62868 2.19617C6.25921 2.19617 5.95969 2.50568 5.95969 2.88747C5.95969 3.26927 6.25921 3.57877 6.62868 3.57877C6.99815 3.57877 7.29767 3.26927 7.29767 2.88747Z" fill="#1DDF5B"/>
<path id="&#229;&#189;&#162;&#231;&#138;&#182;_2" d="M13.0203 5.31529C14.5006 6.7712 14.2515 8.97636 12.633 10.2109C12.3207 10.4481 12.6032 11.0733 12.6854 11.3871C12.6942 11.4204 12.6875 11.4561 12.6673 11.4838C12.6471 11.5115 12.6156 11.5283 12.5817 11.5294C12.5563 11.5302 12.5202 11.5164 12.4733 11.488C12.1491 11.291 11.817 11.1025 11.4769 10.9224C11.4428 10.905 11.4046 10.8987 11.3673 10.9042C11.1464 10.9407 10.9271 10.9796 10.7094 11.021C9.82184 11.1872 8.95935 11.1057 8.12188 10.7765C5.62379 9.79371 4.83837 6.79918 7.11359 5.00878C8.92995 3.77667 11.3136 3.77059 13.0203 5.31529ZM9.05748 6.49267C9.05748 6.183 8.81149 5.93195 8.50804 5.93195C8.20459 5.93195 7.9586 6.183 7.9586 6.49267C7.9586 6.80234 8.20459 7.05339 8.50804 7.05339C8.81149 7.05339 9.05748 6.80234 9.05748 6.49267ZM11.8094 6.49267C11.8094 6.183 11.5634 5.93195 11.26 5.93195C10.9565 5.93195 10.7106 6.183 10.7106 6.49267C10.7106 6.80234 10.9565 7.05339 11.26 7.05339C11.5634 7.05339 11.8094 6.80234 11.8094 6.49267Z" fill="#1DDF5B"/>
</g>
</svg>
